X:1     %Music
T:POLKAS PIQUEES     %Tune name
C:SKOL AL LOUARN     %Tune composer
I:     %Tune infos
Q:1/4=120     %Tempo
M:4/4     %Meter
L:1/8     %
K:G
P:A
|: Gd dc/B/ AG/A/ BB | Gd dc/B/ AB G2 :|
|: B2 dA/B/ cB/A/ BG | B2 dA/B/ cB/A/ G2 :|
|: GA B3/2A/ Bc BA | FG A3/2G/ AB G2 :|
|: B2 dA/B/ cB/A/ BG | B2 dA/B/ cB/A/ G2 :|k
